assets/img/icons/pay-cash.svg

<svg width="23" height="21" viewBox="0 0 23 21" fill="none" xmlns="http://www.w3.org/2000/svg">
<g clip-path="url(#clip0_364_1292)">
<path d="M2.57694 20.866C1.2244 20.6858 0.138368 19.6478 0 18.2703L0.00622878 3.44494C0.0596184 2.42609 1.34675 0.976562 2.37717 0.976562H9.14875L6.0962 2.83052C5.08491 2.90793 3.99932 2.76511 2.99693 2.83986C1.48156 2.95242 1.63194 4.64443 2.81897 4.75254L19.1615 4.75121C19.8195 4.7472 20.8273 5.63525 20.8273 6.2826V8.52451C18.8225 8.51962 16.8573 8.28649 15.3669 9.87972C13.1819 12.2146 14.2737 16.0836 17.3543 16.9027C17.5078 16.9436 17.8735 17.0486 18.0079 17.0486H20.8277V19.335C20.8277 20.0077 19.8133 20.7868 19.1847 20.8668H2.57694V20.866Z" fill="white"/>
<path d="M22.7364 10.477V15.1388C22.5785 15.3898 22.4623 15.5918 22.1367 15.6269C20.6431 15.4485 18.273 16.0282 16.9846 15.2287C14.607 13.7534 15.5413 10.1469 18.3162 9.9427C19.5206 9.85416 20.8322 10.0126 22.0481 9.94448C22.3956 9.98363 22.5954 10.1741 22.7364 10.4775V10.477ZM18.3287 11.8643C17.2844 12.0245 17.2893 13.5759 18.2775 13.7142C19.8423 13.9327 19.6901 11.6556 18.3287 11.8643Z" fill="white"/>
<path d="M16.3425 3.81759H7.23956L13.3371 0.124365C13.7024 -0.102985 14.1019 -0.0113331 14.3368 0.339703L16.3425 3.81714V3.81759Z" fill="white"/>
<path d="M17.9855 3.70676C17.9855 3.71789 18.07 3.76594 18.0073 3.7735H17.9419L16.3865 0.999023C16.9698 1.01993 17.5918 1.51735 17.8302 2.0419C17.8543 2.09484 17.9855 2.44143 17.9855 2.46368C17.9855 2.87656 17.9713 3.29433 17.9855 3.70676Z" fill="white"/>
</g>
<defs>
<clipPath id="clip0_364_1292">
<rect width="22.7368" height="20.8655" fill="white"/>
</clipPath>
</defs>
</svg>

<svg width="23" height="21" fill="none" xmlns="http://www.w3.org/2000/svg"><g clip-path="url(#a)" fill="#fff"><path d="M2.577 20.866C1.224 20.686.138 19.648 0 18.27L.006 3.445C.06 2.426 1.346.977 2.377.977H9.15L6.096 2.83c-1.011.077-2.097-.066-3.1.009-1.514.112-1.364 1.804-.177 1.913l16.343-.002c.658-.004 1.665.884 1.665 1.532v2.242c-2.005-.005-3.97-.239-5.46 1.355-2.185 2.335-1.093 6.204 1.987 7.023.154.04.52.146.654.146h2.82v2.286c0 .673-1.015 1.452-1.643 1.532H2.577v-.001Z"/><path d="M22.736 10.477v4.662c-.158.25-.274.453-.6.488-1.493-.179-3.863.401-5.151-.398-2.378-1.476-1.444-5.082 1.331-5.286 1.205-.089 2.516.07 3.732.001.348.04.547.23.688.533Zm-4.407 1.387c-1.045.16-1.04 1.712-.052 1.85 1.565.219 1.413-2.058.052-1.85Zm-1.986-8.046H7.24L13.337.124c.365-.227.765-.135 1 .216l2.006 3.477Zm1.642-.111c0 .01.085.059.022.067h-.065L16.387.998c.583.02 1.205.518 1.443 1.043.024.053.155.4.155.422 0 .413-.014.83 0 1.243Z"/></g><defs><clipPath id="a"><path fill="#fff" d="M0 0h22.737v20.866H0z"/></clipPath></defs></svg>
